src/icons/solid/symbols/calendar-check.svg

<svg width="24" height="24" viewBox="0 0 24 24" fill="none" xmlns="http://www.w3.org/2000/svg">
<g clip-path="url(#clip0_402_275)">
<path fill-rule="evenodd" clip-rule="evenodd" d="M22.9902 20.9385C22.9902 21.7588 22.4406 22.9997 20.9316 23H3.05957C2.23993 23 1 22.4491 1 20.9385V10.624H22.9902V20.9385ZM15.833 12.8252C15.5333 12.5954 15.1039 12.6651 14.874 12.9648L11.2256 17.8379L9.03613 15.6465C8.77851 15.3789 8.34461 15.3767 8.07422 15.6396C7.80731 15.9001 7.80835 16.3373 8.07715 16.6064L10.8252 19.3584C10.9551 19.4885 11.1355 19.5586 11.3154 19.5586H11.3652C11.5552 19.5486 11.7355 19.4482 11.8555 19.2881L15.9736 13.7861C16.2035 13.486 16.1329 13.0553 15.833 12.8252Z" fill="#212121"/>
<path d="M16.8037 1C17.1836 1.00017 17.4932 1.31036 17.4932 1.69043V3.75098H16.123V6.50293C16.1233 6.88272 16.4331 7.19212 16.8125 7.19238C17.1922 7.19238 17.5027 6.88288 17.5029 6.50293V3.75098H20.9414C21.761 3.75109 23 4.30199 23 5.8125H22.9902V9.25391H1V5.8125C1 4.98213 1.55024 3.75098 3.05957 3.75098H6.4873V1.69043C6.4873 1.31026 6.79773 1 7.17773 1C7.55754 1.00023 7.86719 1.3104 7.86719 1.69043V3.75098H6.49805V6.50293C6.49831 6.88288 6.80783 7.19238 7.1875 7.19238C7.56706 7.19225 7.87669 6.88279 7.87695 6.50293V3.75098H16.1133V1.69043C16.1133 1.31026 16.4237 1 16.8037 1Z" fill="#212121"/>
</g>
<defs>
<clipPath id="clip0_402_275">
<rect width="24" height="24" fill="white"/>
</clipPath>
</defs>
</svg>

<svg xmlns="http://www.w3.org/2000/svg" width="24" height="24" fill="none" viewBox="0 0 24 24"><g fill="currentColor" clip-path="url(#a)"><path fill-rule="evenodd" d="M22.99 20.939c0 .82-.55 2.06-2.058 2.061H3.06C2.24 23 1 22.45 1 20.939V10.624h21.99zm-7.157-8.114a.686.686 0 0 0-.959.14l-3.648 4.873-2.19-2.192a.68.68 0 0 0-.962-.006.68.68 0 0 0 .003.966l2.748 2.752c.13.13.31.2.49.2h.05c.19-.01.37-.11.49-.27l4.119-5.502c.23-.3.159-.73-.141-.96" clip-rule="evenodd"/><path d="M16.804 1c.38 0 .69.31.69.69v2.061h-1.371v2.752c0 .38.31.69.69.69s.69-.31.69-.69V3.75h3.438c.82 0 2.059.551 2.059 2.062h-.01v3.44H1v-3.44c0-.83.55-2.062 2.06-2.062h3.427V1.69c0-.38.31-.691.69-.691s.69.31.69.69V3.75H6.498v2.752a.69.69 0 0 0 1.379 0V3.75h8.236V1.69c0-.38.31-.691.69-.691"/></g><defs><clipPath id="a"><path fill="currentColor" d="M0 0h24v24H0z"/></clipPath></defs></svg>
